X: 55
T:Bonny Crossing The Alps. WI.055
T:Boney Crossing... WI.055
M:C
L:1/8
Q:160
C:"A Hornpipe"
S:Wm Irwin, Folio MS, c1850. AGG's Transcription
R:Hornpipe
O:England
A:Lake District
Z:vmp.Chris Partington.2005
K:Bb
dc|BcAB AFDG|FDCD F2Ac|dfeg fdcB|A2F2 F2dc|!
BcAB AFDG|FDCD F2Ac|dfeg fdcA|G2G2 G2:|!
|:d^f|gdga gbag|^fdcA F2ce|fcfg facB|A2F2 F2BA|!
GDGD GBAG|FDCD FGAc|dfeg fdcA|G2G2 G2:|]
